X:69
T:Oddfellows in Plainville, The
C:Ed Yother
C:c.2005
C:http://edyother.com
M:6/8
R:jig
K:G
BAB dBA | GAG FED | B,3 DB,D | EGF EDB, |
BAB dBA | GAG FED | B,3 DB,D | EGF E3 :|
|: d3 dcB | GBd gfe | d3 dcB | GAB cBA |
BAB dBA | GAG FED | B,3 DB,D | EGF E3 :|


